frontend/src/assets/images/icons/profile.svg

<svg width="96" height="96" viewBox="0 0 96 96" fill="none" xmlns="http://www.w3.org/2000/svg">
<circle cx="48" cy="48" r="48" fill="#D9D9D9"/>
<path d="M47.8749 18.7888C45.2249 18.7888 42.8124 20.1363 41.5624 22.2426L41.0124 23.1701L40.0624 22.6601C39.1749 22.1788 38.1624 21.9238 37.1499 21.9238C33.6124 21.9238 30.7374 24.8701 30.7374 28.5751C30.7374 31.8876 33.0624 34.6501 36.1749 35.1501L37.1249 35.3001V41.9751C44.3624 40.5876 51.6249 40.5251 58.8749 41.9751V33.2626L59.4749 32.9376C61.4374 31.9001 62.7374 29.6751 62.7374 27.1688C62.7374 23.5688 60.1499 20.7788 57.0624 20.7788C56.2499 20.7788 55.4374 20.9801 54.6999 21.3688L53.9249 21.7688L53.3499 21.1326C51.9999 19.6613 49.9999 18.7888 47.8749 18.7888ZM47.9999 43.1376C44.7999 43.1376 41.6124 43.4376 38.4124 44.0126C38.2999 44.7626 38.2499 45.5376 38.2499 46.3376C38.2499 49.9626 39.3999 53.2376 41.1999 55.5501C42.9999 57.8626 45.3874 59.2126 47.9999 59.2126C50.6124 59.2126 52.9999 57.8626 54.7999 55.5501C56.5999 53.2376 57.7499 49.9626 57.7499 46.3376C57.7499 45.5376 57.6874 44.7501 57.5874 44.0001C54.3874 43.4126 51.1999 43.1251 47.9999 43.1376ZM42.0874 59.5001L30.9374 63.2126L27.4399 77.2126H56.1999L54.3874 64.5001L56.6124 64.1751L58.4749 77.2126H68.5624L65.0624 63.2126L53.9124 59.5001C52.1874 60.7376 50.1624 61.4626 47.9999 61.4626C45.8374 61.4626 43.8124 60.7376 42.0874 59.5001ZM50.7499 66.0876C50.9141 66.0876 51.0767 66.1199 51.2283 66.1827C51.38 66.2455 51.5178 66.3376 51.6339 66.4536C51.7499 66.5697 51.842 66.7075 51.9048 66.8592C51.9676 67.0109 52 67.1734 51.9999 67.3376C52 67.5017 51.9676 67.6643 51.9048 67.8159C51.842 67.9676 51.7499 68.1054 51.6339 68.2215C51.5178 68.3376 51.38 68.4296 51.2283 68.4925C51.0767 68.5553 50.9141 68.5876 50.7499 68.5876C50.5858 68.5876 50.4232 68.5553 50.2716 68.4925C50.1199 68.4296 49.9821 68.3376 49.866 68.2215C49.7499 68.1054 49.6579 67.9676 49.5951 67.8159C49.5322 67.6643 49.4999 67.5017 49.4999 67.3376C49.4999 67.1734 49.5322 67.0109 49.5951 66.8592C49.6579 66.7075 49.7499 66.5697 49.866 66.4536C49.9821 66.3376 50.1199 66.2455 50.2716 66.1827C50.4232 66.1199 50.5858 66.0876 50.7499 66.0876ZM51.6249 71.8376C51.9565 71.8376 52.2744 71.9693 52.5088 72.2037C52.7432 72.4381 52.8749 72.756 52.8749 73.0876C52.8749 73.4191 52.7432 73.737 52.5088 73.9715C52.2744 74.2059 51.9565 74.3376 51.6249 74.3376C51.2934 74.3376 50.9755 74.2059 50.7411 73.9715C50.5066 73.737 50.3749 73.4191 50.3749 73.0876C50.3749 72.756 50.5066 72.4381 50.7411 72.2037C50.9755 71.9693 51.2934 71.8376 51.6249 71.8376Z" fill="white"/>
</svg>

<svg width="96" height="96" fill="none" xmlns="http://www.w3.org/2000/svg"><circle cx="48" cy="48" r="48" fill="#D9D9D9"/><path d="M47.875 18.789c-2.65 0-5.063 1.347-6.313 3.454l-.55.927-.95-.51a6.143 6.143 0 0 0-2.912-.736c-3.538 0-6.413 2.946-6.413 6.651 0 3.313 2.325 6.075 5.438 6.575l.95.15v6.675c7.237-1.387 14.5-1.45 21.75 0v-8.712l.6-.325c1.962-1.038 3.262-3.263 3.262-5.77 0-3.6-2.587-6.39-5.675-6.39-.812 0-1.625.202-2.362.59l-.775.4-.575-.635C52 19.66 50 18.789 47.875 18.789ZM48 43.138c-3.2 0-6.388.3-9.588.875-.112.75-.162 1.525-.162 2.325 0 3.625 1.15 6.9 2.95 9.212 1.8 2.313 4.187 3.663 6.8 3.663 2.612 0 5-1.35 6.8-3.663 1.8-2.312 2.95-5.587 2.95-9.212 0-.8-.063-1.588-.163-2.338A51.8 51.8 0 0 0 48 43.138ZM42.087 59.5l-11.15 3.713-3.497 14H56.2L54.387 64.5l2.225-.325 1.863 13.038h10.087l-3.5-14-11.15-3.713c-1.725 1.238-3.75 1.963-5.912 1.963-2.163 0-4.188-.725-5.913-1.963Zm8.663 6.588a1.25 1.25 0 1 1 0 2.5 1.25 1.25 0 0 1 0-2.5Zm.875 5.75a1.25 1.25 0 1 1 0 2.5 1.25 1.25 0 0 1 0-2.5Z" fill="#fff"/></svg>
